X: 29
T: Praeludia organi op. 5 – Allegro non troppo
C: Franciszek Walczyński
%%abc-version 2.0
%%abcx-abcm2ps-target-version 5.9.1 (29 Sep 2008)
%%abc-creator hum2abc beta
%%abcx-conversion-date 2021/10/04 07:38:41
%%abc-edited-by Andrzej Borzym
%%abc-edited-by Krzysztof Stępień
%%abcx-initial-encoding-date 2021-07-26
%%humdrum-veritas 526666360
%%humdrum-veritas-data 4294385241
%%linebreak <none>
%%barnumbers 0
L: 1/8
M: 2/4
N: Derived from pl-kozmzk--mzk-m-159--018_walczynski-franciszek--praeludia-organi-op-5-allegro-non-troppo.krn
Q: "18. Allegro non troppo."
%%staves {1 2}
V: 1 clef=treble
V: 2 clef=bass
K: G
[V:1] EGBe & z4 | 
[V:2] z4 & z4 | 
[V:1] ^d4 & z .c.B.A | 
[V:2] z4 & z4 | 
[V:1] edcB- & BAGF | 
[V:2] GFED & z4 | 
[V:1] BAGA & E4 | 
[V:2] C4 & z4 | 
[V:1] B4 & ^DFED | 
[V:2] B,A,G,F, & z4 | 
[V:1] B^A/B/ e/B/c/d/ & E4- | 
[V:2] G,4 & z4 | 
[V:1] cB =AG/F/ & E4- | 
[V:2] A,B,C2 & z4 | 
[V:1] G!accent!B!accent!A!accent!G- & EGFE- | 
[V:2] B,4- & z4 | 
[V:1] GFE^D & E^DB,A, | 
[V:2] B,A,G,F, & B,,4 | 
[V:1] E4 & B,2C2 | 
[V:2] G,2A,2 & E,D,C,A,, | 
[V:1] E!accent!G2F & B,E^C^D | 
[V:2] G,B,^A,=A,- & B,,4 | 
[V:1] E4- & B,4 | 
[V:2] A,G,F,G, & E,4 | 
[V:1] E4- & C4 | 
[V:2] A,4 & .A,,.C,.E,.A, | 
[V:1] E4- & B,4 | 
[V:2] G,4 & .E,.B,,.G,,.B,, | 
[V:1] E4- & A,2B,2 | 
[V:2] F,2A,2 & .C,.A,,.E,,.F,, | 
[V:1] !fermata!E4 & B,4 |]  
[V:2] ^G,4 & !fermata!E,,4 |]  


